X:110
T:Over the Muir to Ketty
R:Reel
M:4/4
L:1/8
K:D
FE |\
"D" D3 F ABAF | A2 d2 d3 B | "D"  ABde "Bm" f2 ed | "Em" e2 E2 "A" E2 FE|
"D" D3 F ABAF | A2 d2 d3 B | "Bm" ABde "A7" fgef  | "D"  d2 D2     D2 :|
|: de |\
"D" fedB        ABdF |      A2 d2        d3 F | "Em" G3 A      BAGF | "A" E2 e2 e2 ag  |
"D" fedf "A/C#" edce | "Bm" dcBA  "Bm/A" BAGF | "Em" EFGE "A7" AGFE | "D" D2 d2 d2    :|
